X: 32
M:2/4
L:1/8
K:G
(B/c/)|dfBd|GBDG|F/G/A/B/ c(B/A/)|G/A/B/c/ d(B/c/)|dgBd|
|:(3[A,/F/][A,/F/][A,/F/] [A,F] (3[F/A/][F/A/][F/A/] [FA]|
d/A/d/f/ a2|g/f/g/e/ c/A/B/c/|f/e/f/d/ A2|
(3[A,/F/][A,/F/][A,/F/] [A,F] (3[F/A/][F/A/][F/A/] [FA]|
d/A/d/f/ a2|g/f/g/e/ c/A/B/c/|df d:|



